X:1
T:Psalm 115
T:V 4
L:1/4
M:12/4
I:linebreak $
K:D
V:1 treble nm="Pipe Organ" snm="Org."
V:1
 d2 B2 A A B c d3 z |$[M:14/4] A2 B2 A G F2 E2 D3 z |$[M:12/4] D2 F2 E D F G A3 z |$ %3
w: O- re het hul, maar die's doof|vir die klank van stem of taal;|en die neus van af- gods- hoof|
 F2 A2 B c d B A3 z |$ A2 G2 F A G F E3 z |$[M:14/4] E2 F2 A G F2 E2 D4 |] %6
w: kan nie ruik of a- sem- haal.|Han- de het hul- al- kant vas!-|vin- gers wat nie voel of tas.|

